icon-themes/breeze_svg/cmd/32/entirerow.svg

<svg viewBox="0 0 32 32" xmlns="http://www.w3.org/2000/svg"><path d="m4 4v8h1v-3h7v3h1v-3h6v3h1v-3h7v3h1v-8zm1 1h7v3h-7zm8 0h6v3h-6zm7 0h7v3h-7zm-16 16v7h24v-7h-1v3h-7v-3h-1v3h-6v-3h-1v3h-7v-3zm1 4h7v2h-7zm8 0h6v2h-6zm7 0h7v2h-7z" fill="#4d4d4d"/><path d="m4 12v1 7 1h13 1 10v-1-2.732422-1.535156-2.732422-1h-10-1zm1.6582031 1h2.6835938l.2773437.324219 5.7226564 6.675781h-2.681641l-.28125-.326172zm4 0h2.6835939l.277344.324219 4.380859 5.111328.884766 1.03125.115234.134765.341797.398438h-.341797-1-1.339844l-.28125-.326172zm3.9999999 0h2.683594l.277344.324219.380859.445312 1 1.166016 4.341797 5.064453h-2.681641l-.28125-.326172-1.378906-1.609375-1-1.166015zm4 0h.341797 2.341797l.277344.324219 5.722656 6.675781h-2.681641l-.28125-.326172-5.378906-6.27539zm4 0h2.683594l.277344.324219 2.380859 2.777343v3.13086zm4 0h1.341797v1.566406zm-20.658203.769531 5.341797 6.230469h-2.6816408l-.28125-.326172-2.3789062-2.77539zm0 4.666016 1.3417969 1.564453h-1.3417969z" fill="#1d99f3"/></svg>

<svg xmlns="http://www.w3.org/2000/svg" viewBox="0 0 32 32">
 <path 
     style="fill:#4d4d4d" 
     d="M 4 4 L 4 12 L 5 12 L 5 9 L 12 9 L 12 12 L 13 12 L 13 9 L 19 9 L 19 12 L 20 12 L 20 9 L 27 9 L 27 12 L 28 12 L 28 4 L 4 4 z M 5 5 L 12 5 L 12 8 L 5 8 L 5 5 z M 13 5 L 19 5 L 19 8 L 13 8 L 13 5 z M 20 5 L 27 5 L 27 8 L 20 8 L 20 5 z M 4 21 L 4 28 L 28 28 L 28 21 L 27 21 L 27 24 L 20 24 L 20 21 L 19 21 L 19 24 L 13 24 L 13 21 L 12 21 L 12 24 L 5 24 L 5 21 L 4 21 z M 5 25 L 12 25 L 12 27 L 5 27 L 5 25 z M 13 25 L 19 25 L 19 27 L 13 27 L 13 25 z M 20 25 L 27 25 L 27 27 L 20 27 L 20 25 z "
     />
 <path 
     style="fill:#1d99f3" 
     d="M 4 12 L 4 13 L 4 20 L 4 21 L 17 21 L 18 21 L 28 21 L 28 20 L 28 17.267578 L 28 15.732422 L 28 13 L 28 12 L 18 12 L 17 12 L 4 12 z M 5.6582031 13 L 8.3417969 13 L 8.6191406 13.324219 L 14.341797 20 L 11.660156 20 L 11.378906 19.673828 L 5.6582031 13 z M 9.6582031 13 L 12.341797 13 L 12.619141 13.324219 L 17 18.435547 L 17.884766 19.466797 L 18 19.601562 L 18.341797 20 L 18 20 L 17 20 L 15.660156 20 L 15.378906 19.673828 L 9.6582031 13 z M 13.658203 13 L 16.341797 13 L 16.619141 13.324219 L 17 13.769531 L 18 14.935547 L 22.341797 20 L 19.660156 20 L 19.378906 19.673828 L 18 18.064453 L 17 16.898438 L 13.658203 13 z M 17.658203 13 L 18 13 L 20.341797 13 L 20.619141 13.324219 L 26.341797 20 L 23.660156 20 L 23.378906 19.673828 L 18 13.398438 L 17.658203 13 z M 21.658203 13 L 24.341797 13 L 24.619141 13.324219 L 27 16.101562 L 27 19.232422 L 21.658203 13 z M 25.658203 13 L 27 13 L 27 14.566406 L 25.658203 13 z M 5 13.769531 L 10.341797 20 L 7.6601562 20 L 7.3789062 19.673828 L 5 16.898438 L 5 13.769531 z M 5 18.435547 L 6.3417969 20 L 5 20 L 5 18.435547 z "
     />
</svg>
